svg/color/busd.svg

<svg width="33" height="33" viewBox="0 0 33 33" fill="none" xmlns="http://www.w3.org/2000/svg">
<path d="M16.3626 1.03988L20.1591 4.91505L10.5994 14.4434L6.80291 10.6594L16.3626 1.03988Z" fill="#F0B90B"/>
<path d="M22.1259 6.78425L25.9223 10.6594L10.5994 25.9322L6.80291 22.1482L22.1259 6.78425Z" fill="#F0B90B"/>
<path d="M4.83608 12.5286L8.63252 16.4038L4.83608 20.1878L1.03964 16.4038L4.83608 12.5286Z" fill="#F0B90B"/>
<path d="M27.8892 12.5286L31.6856 16.4038L16.3626 31.6765L12.5662 27.8925L27.8892 12.5286Z" fill="#F0B90B"/>
<path fill-rule="evenodd" clip-rule="evenodd" d="M16.3651 0.355347L20.8361 4.91908L10.5994 15.1222L6.12348 10.661L16.3651 0.355347ZM7.48235 10.6578L10.5994 13.7646L19.482 4.91102L16.3602 1.72441L7.48235 10.6578ZM22.1289 6.10034L26.5994 10.6634L10.5994 26.611L6.12287 22.1492L22.1289 6.10034ZM7.48296 22.1471L10.5994 25.2533L25.2453 10.6554L22.1228 7.46816L7.48296 22.1471ZM4.83608 11.8416L9.30954 16.4078L4.83608 20.8666L0.362625 16.4078L4.83608 11.8416ZM27.8922 11.8447L32.3626 16.4078L16.3626 32.3553L11.8861 27.8935L27.8922 11.8447ZM13.2462 27.8915L16.3626 30.9977L31.0086 16.3998L27.8861 13.2125L13.2462 27.8915ZM1.71666 16.3998L4.83608 19.509L7.95551 16.3998L4.83608 13.2156L1.71666 16.3998Z" fill="#F0B90B"/>
</svg>

<svg width="33" height="33" viewBox="0 0 33 33" fill="none" xmlns="http://www.w3.org/2000/svg"><path d="M16.363 1.04l3.796 3.875-9.56 9.528-3.796-3.784 9.56-9.62zm5.763 5.744l3.796 3.875L10.6 25.932l-3.796-3.784L22.126 6.784zm-17.29 5.745l3.797 3.875-3.797 3.784-3.796-3.784 3.796-3.875zm23.054 0l3.796 3.875-15.323 15.273-3.797-3.785L27.89 12.53z" fill="#F0B90B"/><path fill-rule="evenodd" clip-rule="evenodd" d="M16.365.355l4.471 4.564L10.6 15.122l-4.476-4.461L16.365.355zM7.482 10.658l3.117 3.107 8.883-8.854-3.122-3.187-8.878 8.934zM22.13 6.1l4.47 4.563-16 15.948-4.476-4.462L22.129 6.1zM7.483 22.147l3.116 3.106 14.646-14.598-3.122-3.187-14.64 14.68zM4.836 11.842l4.474 4.566-4.474 4.459-4.473-4.46 4.473-4.565zm23.056.003l4.47 4.563-16 15.947-4.476-4.461 16.006-16.05zM13.246 27.892l3.117 3.106L31.009 16.4l-3.123-3.187-14.64 14.679zM1.716 16.4l3.12 3.109 3.12-3.11-3.12-3.183-3.12 3.184z" fill="#F0B90B"/></svg>
